X:22
T:Blessed Jesus at Thy Word
%%stretchlast false
M:4/4
L:1/4
K:F clef=C1
"^I"[F,CA] [F,A,CF] "^V¹"[E,G,CG] "^V"[C,G,Ec] | "^I"[F,CA] "^vi"[D,A,DF] "^V"[C,CEG]2 | "^I¹"[A,,F,CF] "^I"[F,,A,CF] "^IV"[B,,B,DF] "^I¹"[A,,F,CF] | "^vii°¹"[G,,B,EG] "^I"[F,,CFA] [C,CFG] "^V"[C,CEG] | "^I"[F,,A,F]4 | [F,CA] [F,A,CF] "^V¹"[E,G,CG] "^V"[C,G,Ec] | "^I"[F,CA] "^vi"[D,A,DF] "^V"[C,CEG]2 | "^I¹"[A,,F,CF] "^I"[F,,A,CF] "^IV"[B,,B,DF] "^I¹"[A,,F,CF] | "^vii°¹"[G,,B,EG] "^I"[F,,CFA] [C,CFG] "^V"[C,CEG] | "^I"[F,,A,F]4 | [F,A,C] "^V¹"[E,G,C] "^♭v°¹"[D,F,=B,D] "^V"[C,G,CE] | "^I¹"[A,,A,CF] "^V/V¹"[=B,,G,DG] "^V"[C,G,CE] [C,E,C] | "^I¹"[A,,F,CF] "^vi"[D,F,A,F] "^V"[C,E,CG] "^I"[F,,F,CA] | "^IV"[B,,F,DB] "^I"[F,,F,CA] [C,F,CG] "^V"[C,E,CG] | "^I"[F,,F,A,F]4 |]
